image/logo.svg

<svg width="73" height="37" viewBox="0 0 73 37" fill="none" xmlns="http://www.w3.org/2000/svg">
<path d="M1.54 0.721999H7.326C8.69 0.721999 9.73867 0.824666 10.472 1.03C11.22 1.22067 11.748 1.536 12.056 1.976C12.364 2.40133 12.518 3.00267 12.518 3.78V5.54C12.518 5.936 12.3567 6.31 12.034 6.662C11.726 7.014 11.3593 7.256 10.934 7.388V7.498C11.4913 7.55667 11.9973 7.79867 12.452 8.224C12.9213 8.63467 13.156 9.09667 13.156 9.61V11.81C13.156 12.9687 12.694 13.79 11.77 14.274C10.846 14.758 9.416 15 7.48 15H1.54V0.721999ZM7.326 6.53C7.86867 6.53 8.272 6.486 8.536 6.398C8.8 6.31 8.976 6.17067 9.064 5.98C9.16667 5.77467 9.218 5.48133 9.218 5.1V4.396C9.218 4.05867 9.174 3.80933 9.086 3.648C8.998 3.472 8.81467 3.34733 8.536 3.274C8.272 3.20067 7.84667 3.164 7.26 3.164H4.972V6.53H7.326ZM7.414 12.558C8.25 12.558 8.844 12.4627 9.196 12.272C9.548 12.0813 9.724 11.7733 9.724 11.348V10.204C9.724 9.676 9.58467 9.302 9.306 9.082C9.042 8.862 8.56533 8.752 7.876 8.752H4.972V12.558H7.414ZM20.7188 15.22C16.9495 15.22 15.0648 14.0687 15.0648 11.766V7.938C15.0648 6.60333 15.4902 5.63533 16.3408 5.034C17.2062 4.43267 18.5335 4.132 20.3228 4.132C22.0095 4.132 23.2415 4.42533 24.0188 5.012C24.8108 5.584 25.2068 6.55933 25.2068 7.938V10.534H18.2988V11.502C18.2988 12.118 18.5188 12.558 18.9588 12.822C19.3988 13.086 20.1908 13.218 21.3348 13.218C22.3908 13.218 23.5788 13.064 24.8988 12.756V14.802C23.5935 15.0807 22.2002 15.22 20.7188 15.22ZM22.1488 8.708V7.168C22.1488 6.816 22.0022 6.552 21.7088 6.376C21.4302 6.2 20.9535 6.112 20.2788 6.112C19.5015 6.112 18.9808 6.2 18.7168 6.376C18.4382 6.56667 18.2988 6.83067 18.2988 7.168V8.708H22.1488ZM30.6759 15.22C29.6786 15.22 28.9306 15.132 28.4319 14.956C27.9479 14.7653 27.6032 14.4353 27.3979 13.966C27.2072 13.482 27.1119 12.7633 27.1119 11.81C27.1119 10.9593 27.2146 10.292 27.4199 9.808C27.6399 9.324 27.9846 8.97933 28.4539 8.774C28.9379 8.554 29.5979 8.444 30.4339 8.444H34.0419V7.718C34.0419 7.26333 33.9759 6.926 33.8439 6.706C33.7266 6.486 33.4992 6.332 33.1619 6.244C32.8392 6.156 32.3479 6.112 31.6879 6.112C30.7786 6.112 29.5319 6.2 27.9479 6.376V4.352C29.1066 4.20533 30.4632 4.132 32.0179 4.132C33.3819 4.132 34.4306 4.23467 35.1639 4.44C35.9119 4.64533 36.4472 4.99733 36.7699 5.496C37.0926 5.99467 37.2539 6.72067 37.2539 7.674V15H34.1079V14.032C33.8586 14.4573 33.5212 14.758 33.0959 14.934C32.6706 15.1247 31.8639 15.22 30.6759 15.22ZM31.9299 13.218C32.5752 13.218 33.0372 13.196 33.3159 13.152C33.5212 13.1227 33.6606 13.0787 33.7339 13.02C33.8219 12.9613 33.8952 12.866 33.9539 12.734C34.0126 12.6313 34.0419 12.4773 34.0419 12.272V10.204H31.8419C31.3432 10.204 30.9912 10.2407 30.7859 10.314C30.5806 10.3727 30.4412 10.5047 30.3679 10.71C30.2946 10.9007 30.2579 11.2453 30.2579 11.744C30.2579 12.228 30.2946 12.5653 30.3679 12.756C30.4412 12.9467 30.5806 13.0713 30.7859 13.13C31.0059 13.1887 31.3872 13.218 31.9299 13.218ZM43.7759 15.22C42.4119 15.22 41.4512 14.978 40.8939 14.494C40.3512 13.9953 40.0799 13.218 40.0799 12.162V4.352H43.2919V11.722C43.2919 12.1327 43.3285 12.4407 43.4019 12.646C43.4899 12.8513 43.6512 12.998 43.8859 13.086C44.1352 13.174 44.5092 13.218 45.0079 13.218C45.6385 13.218 46.1005 13.1813 46.3939 13.108C46.6872 13.02 46.8852 12.8733 46.9879 12.668C47.0905 12.4627 47.1419 12.1473 47.1419 11.722V4.352H50.3539V15H47.1859V13.702C46.9512 14.714 45.8145 15.22 43.7759 15.22ZM58.4879 15.22C57.9452 15.22 57.4905 15.198 57.1239 15.154C56.7572 15.11 56.3905 15.022 56.0239 14.89C55.6132 14.758 55.2759 14.5747 55.0119 14.34C54.7625 14.1053 54.5572 13.7827 54.3959 13.372C54.2199 12.9467 54.1319 12.4553 54.1319 11.898V6.332H51.9759V4.352H54.1319V1.272H57.3439V4.352H60.2699V6.332H57.3439V11.348C57.3439 11.8613 57.3879 12.25 57.4759 12.514C57.5639 12.7633 57.7325 12.9467 57.9819 13.064C58.2312 13.1667 58.6125 13.218 59.1259 13.218C59.3312 13.218 59.7125 13.1813 60.2699 13.108V15.11C59.5805 15.1833 58.9865 15.22 58.4879 15.22ZM65.1368 14.912L60.8908 4.352H64.3888L66.7868 11.876L68.9648 4.352H72.2868L66.4568 19.576H63.2008L65.1368 14.912ZM0.88 33.91L8.316 24.164H1.1V21.722H12.54V23.79L5.104 33.536H12.672V36H0.88V33.91ZM19.9827 36.22C19.3227 36.22 18.78 36.198 18.3547 36.154C17.9294 36.11 17.4747 36.022 16.9907 35.89C16.4627 35.7433 16.0374 35.538 15.7147 35.274C15.392 34.9953 15.1207 34.6067 14.9007 34.108C14.6807 33.624 14.5707 33.0373 14.5707 32.348V29.202C14.5707 28.498 14.6807 27.882 14.9007 27.354C15.1207 26.826 15.4067 26.4153 15.7587 26.122C16.0667 25.8727 16.47 25.6673 16.9687 25.506C17.482 25.33 17.9807 25.22 18.4647 25.176C19.022 25.1467 19.528 25.132 19.9827 25.132C20.6574 25.132 21.1927 25.154 21.5887 25.198C21.9994 25.2273 22.4467 25.3153 22.9307 25.462C23.4587 25.6233 23.884 25.8433 24.2067 26.122C24.544 26.4007 24.83 26.7967 25.0647 27.31C25.2847 27.838 25.3947 28.4687 25.3947 29.202V32.348C25.3947 33.008 25.2847 33.5873 25.0647 34.086C24.8594 34.5847 24.588 34.9733 24.2507 35.252C23.9574 35.5013 23.554 35.7067 23.0407 35.868C22.542 36.0147 22.0507 36.11 21.5667 36.154C21.1267 36.198 20.5987 36.22 19.9827 36.22ZM19.9827 34.218C20.584 34.218 21.0387 34.174 21.3467 34.086C21.6547 33.9833 21.8674 33.8293 21.9847 33.624C22.1167 33.4187 22.1827 33.118 22.1827 32.722V28.696C22.1827 28.1093 22.0287 27.6987 21.7207 27.464C21.4127 27.2293 20.8334 27.112 19.9827 27.112C19.132 27.112 18.5527 27.2293 18.2447 27.464C17.9367 27.6987 17.7827 28.1093 17.7827 28.696V32.722C17.7827 33.118 17.8414 33.4187 17.9587 33.624C18.0907 33.8293 18.3107 33.9833 18.6187 34.086C18.9267 34.174 19.3814 34.218 19.9827 34.218ZM27.8982 25.352H31.0662V26.65C31.3156 25.638 32.4522 25.132 34.4762 25.132C35.8402 25.132 36.7936 25.3813 37.3362 25.88C37.8936 26.364 38.1722 27.134 38.1722 28.19V36H34.9602V28.608C34.9602 28.1973 34.9162 27.8893 34.8282 27.684C34.7549 27.4787 34.5936 27.332 34.3442 27.244C34.1096 27.156 33.7429 27.112 33.2442 27.112C32.6136 27.112 32.1516 27.156 31.8582 27.244C31.5649 27.3173 31.3669 27.4567 31.2642 27.662C31.1616 27.8673 31.1102 28.1827 31.1102 28.608V36H27.8982V25.352ZM46.3282 36.22C42.5589 36.22 40.6742 35.0687 40.6742 32.766V28.938C40.6742 27.6033 41.0996 26.6353 41.9502 26.034C42.8156 25.4327 44.1429 25.132 45.9322 25.132C47.6189 25.132 48.8509 25.4253 49.6282 26.012C50.4202 26.584 50.8162 27.5593 50.8162 28.938V31.534H43.9082V32.502C43.9082 33.118 44.1282 33.558 44.5682 33.822C45.0082 34.086 45.8002 34.218 46.9442 34.218C48.0002 34.218 49.1882 34.064 50.5082 33.756V35.802C49.2029 36.0807 47.8096 36.22 46.3282 36.22ZM47.7582 29.708V28.168C47.7582 27.816 47.6116 27.552 47.3182 27.376C47.0396 27.2 46.5629 27.112 45.8882 27.112C45.1109 27.112 44.5902 27.2 44.3262 27.376C44.0476 27.5667 43.9082 27.8307 43.9082 28.168V29.708H47.7582Z" fill="#2B7FFF"/>
</svg>

<svg xmlns="http://www.w3.org/2000/svg" fill="none" viewBox="0 0 73 37">
  <path fill="#2B7FFF" d="M1.54.722h5.786c1.364 0 2.413.103 3.146.308.748.19 1.276.506 1.584.946.308.425.462 1.027.462 1.804v1.76c0 .396-.161.77-.484 1.122a2.379 2.379 0 0 1-1.1.726v.11c.557.059 1.063.3 1.518.726.47.41.704.873.704 1.386v2.2c0 1.159-.462 1.98-1.386 2.464-.924.484-2.354.726-4.29.726H1.54V.722ZM7.326 6.53c.543 0 .946-.044 1.21-.132.264-.088.44-.227.528-.418.103-.205.154-.499.154-.88v-.704c0-.337-.044-.587-.132-.748-.088-.176-.271-.3-.55-.374-.264-.073-.69-.11-1.276-.11H4.972V6.53h2.354Zm.088 6.028c.836 0 1.43-.095 1.782-.286.352-.19.528-.499.528-.924v-1.144c0-.528-.14-.902-.418-1.122-.264-.22-.74-.33-1.43-.33H4.972v3.806h2.442Zm13.305 2.662c-3.77 0-5.654-1.151-5.654-3.454V7.938c0-1.335.425-2.303 1.276-2.904.865-.601 2.192-.902 3.982-.902 1.686 0 2.918.293 3.696.88.792.572 1.188 1.547 1.188 2.926v2.596h-6.908v.968c0 .616.22 1.056.66 1.32.44.264 1.232.396 2.376.396 1.056 0 2.244-.154 3.564-.462v2.046a19.993 19.993 0 0 1-4.18.418Zm1.43-6.512v-1.54c0-.352-.147-.616-.44-.792-.279-.176-.756-.264-1.43-.264-.777 0-1.298.088-1.562.264a.908.908 0 0 0-.418.792v1.54h3.85Zm8.527 6.512c-.997 0-1.745-.088-2.244-.264a1.808 1.808 0 0 1-1.034-.99c-.19-.484-.286-1.203-.286-2.156 0-.85.103-1.518.308-2.002.22-.484.565-.829 1.034-1.034.484-.22 1.144-.33 1.98-.33h3.608v-.726c0-.455-.066-.792-.198-1.012-.117-.22-.345-.374-.682-.462-.323-.088-.814-.132-1.474-.132-.91 0-2.156.088-3.74.264V4.352c1.159-.147 2.515-.22 4.07-.22 1.364 0 2.413.103 3.146.308.748.205 1.283.557 1.606 1.056.323.499.484 1.225.484 2.178V15h-3.146v-.968c-.25.425-.587.726-1.012.902-.425.19-1.232.286-2.42.286Zm1.254-2.002c.645 0 1.107-.022 1.386-.066.205-.03.345-.073.418-.132a.647.647 0 0 0 .22-.286c.059-.103.088-.257.088-.462v-2.068h-2.2c-.499 0-.85.037-1.056.11a.597.597 0 0 0-.418.396c-.073.19-.11.535-.11 1.034 0 .484.037.821.11 1.012a.6.6 0 0 0 .418.374c.22.059.601.088 1.144.088Zm11.846 2.002c-1.364 0-2.325-.242-2.882-.726-.543-.499-.814-1.276-.814-2.332v-7.81h3.212v7.37c0 .41.036.719.11.924.088.205.25.352.484.44.25.088.623.132 1.122.132.63 0 1.092-.037 1.386-.11.293-.088.491-.235.594-.44.102-.205.154-.52.154-.946v-7.37h3.212V15h-3.168v-1.298c-.235 1.012-1.371 1.518-3.41 1.518Zm14.712 0c-.543 0-.998-.022-1.364-.066a4.999 4.999 0 0 1-1.1-.264 2.782 2.782 0 0 1-1.012-.55c-.25-.235-.455-.557-.616-.968-.176-.425-.264-.917-.264-1.474V6.332h-2.156v-1.98h2.156v-3.08h3.212v3.08h2.926v1.98h-2.926v5.016c0 .513.044.902.132 1.166.088.25.257.433.506.55.25.103.63.154 1.144.154.205 0 .587-.037 1.144-.11v2.002a17.2 17.2 0 0 1-1.782.11Zm6.649-.308L60.89 4.352h3.498l2.398 7.524 2.178-7.524h3.322l-5.83 15.224H63.2l1.936-4.664ZM.88 33.91l7.436-9.746H1.1v-2.442h11.44v2.068l-7.436 9.746h7.568V36H.88v-2.09Zm19.103 2.31c-.66 0-1.203-.022-1.628-.066a8.551 8.551 0 0 1-1.364-.264c-.528-.147-.954-.352-1.276-.616-.323-.279-.594-.667-.814-1.166-.22-.484-.33-1.07-.33-1.76v-3.146c0-.704.11-1.32.33-1.848.22-.528.506-.939.858-1.232.308-.25.711-.455 1.21-.616a6.4 6.4 0 0 1 1.496-.33 28.37 28.37 0 0 1 1.518-.044c.674 0 1.21.022 1.606.066.41.03.858.117 1.342.264.528.161.953.381 1.276.66.337.279.623.675.858 1.188.22.528.33 1.159.33 1.892v3.146c0 .66-.11 1.24-.33 1.738-.206.499-.477.887-.814 1.166-.294.25-.697.455-1.21.616-.499.147-.99.242-1.474.286-.44.044-.968.066-1.584.066Zm0-2.002c.601 0 1.056-.044 1.364-.132.308-.103.52-.257.638-.462.132-.205.198-.506.198-.902v-4.026c0-.587-.154-.997-.462-1.232-.308-.235-.888-.352-1.738-.352-.851 0-1.43.117-1.738.352-.308.235-.462.645-.462 1.232v4.026c0 .396.058.697.176.902.132.205.352.36.66.462.308.088.762.132 1.364.132Zm7.915-8.866h3.168v1.298c.25-1.012 1.386-1.518 3.41-1.518 1.364 0 2.318.25 2.86.748.558.484.836 1.254.836 2.31V36H34.96v-7.392c0-.41-.044-.719-.132-.924-.073-.205-.234-.352-.484-.44-.234-.088-.601-.132-1.1-.132-.63 0-1.092.044-1.386.132-.293.073-.491.213-.594.418-.102.205-.154.52-.154.946V36h-3.212V25.352Zm18.43 10.868c-3.77 0-5.654-1.151-5.654-3.454v-3.828c0-1.335.426-2.303 1.276-2.904.866-.601 2.193-.902 3.982-.902 1.687 0 2.919.293 3.696.88.792.572 1.188 1.547 1.188 2.926v2.596h-6.908v.968c0 .616.22 1.056.66 1.32.44.264 1.232.396 2.376.396 1.056 0 2.244-.154 3.564-.462v2.046a19.993 19.993 0 0 1-4.18.418Zm1.43-6.512v-1.54c0-.352-.146-.616-.44-.792-.278-.176-.755-.264-1.43-.264-.777 0-1.298.088-1.562.264a.908.908 0 0 0-.418.792v1.54h3.85Z"/>
</svg>
